X: 8135
T: Convenience, The
R: reel
M: 4/4
K: Dmajor
|:dABA dABA|GAFA EADA|dABA dABA|FAEA D2 (3ABc:|
|:~d3c defd|ceBc ABcA|~d3c dfed|1 cABc d2 (3ABc:|2 cABc defg||
|:~a3g efge|Aege Aefe|~a3g efge|Addc defg|aA (3AAA aAaA|
gA (3AAA gAgA|1 ~f3a gefe|Addc defg:|2 fgaf gbag|fdec d2 (3ABc||

